X: 1
T: Shuseen Bane
B: A COLECTION of the most Celebrated Irish Tunes2 p.1b
M: C
L: 1/8
K: Gm
(f/g/a) |\
b4 b2 a2 | b2a2 Tg>a (g/a/g/f/) | d6 de | f3g a2 g2 | f2 d2 (c/d/c/A/) (c/A/G/F/) |
G6 (G/A/c) | d4 D2 F2 | G2 F2 B>c (B/c/B/G/) | F4 (d/c/d/=e/) fd | c2 A2 G2 F2 | G4 ^F4 | G6 :|
|: (GA/c/) |\
d4 c2 A2 | c2 A2 G2 (AG/F/) | GA (FD) (CA,) CD | F>G FG FD D2 |
DE F2 GA cB | A2 cd f3f | g3 a f>d c>A | G2 ^F2 G2 :|
